X: 35895
T: Sandy M'Gaff
R: jig
M: 6/8
K: Edorian
|:E3 EFG|B3 Bcd|E3 EFG|BAG FED|
E3 EFG|B2 c d2 e|fgf edc|dcB AGF:|
|:E2 e efg|fed e3|E2 e efg|fga gfe|
DFA d2 e|fec d3|DFA d2B|ABG FED:|

